X: 1
T: Bacup Coconut Tune
T: Tip Top Polka
M: 4/4
L: 1/8
Z: 2009 John Chambers <jc:trillian.mit.edu>
F: http://www.thesession.org/tunes/display/6450
F: http/www.lesession.co.uk/music/UmfFaqSessionTunes.abc
N: Also played lower in D
K: G
|: Bc \
| "G"d2d2 "D7"dedc |  "G"B2B2     B2GA |  "G"B2B2     B2d2 | "D7"AGFG A2AB |
| "C"c2c2     cdcB | "Am"A2A2 "D7"A3G  | "D7"FGAB     cdef |  "G"g2g2 g2  :|
|: ef \
| "C"g2e2 edef | "G"g2d2 d2GA |  "G"B2B2     A2G2 | "D7"e2d2 d2ef |
| "C"g2e2 edef | "G"g2d2 d2G2 | "Am"FGAB "D7"cdef |  "G"g2g2 g2  :|
